X:1
T:Title
%%score { ( 1 3 4 7 ) | ( 2 5 6 ) }
L:1/8
M:6/8
K:F
V:1 treble nm="Grand Piano"
V:3 treble 
V:4 treble 
V:7 treble 
V:2 bass 
V:5 bass 
V:6 bass 
V:1
 z3 z2[Q:1/4=100] F | AAA AGF | ccc c2 c | [Fd][Fd][Fd] [Fc]2 [FA] |[M:5/8] [EG]-[EG]- [EG]3 | %5
[M:1/8] F |[M:3/4] AA AA GF |[M:7/8] ccc [Fd]3 [Fd] | %8
[M:27/32] [Fc]/-<[Fc]/F/-<F/[FG]/-<[FG]/[FA]/ z/4 z/4 z/4 z/4 z/4 z/4 z/4 z/4 z/4 z/4 z/4 z/ | %9
[M:5/8] z5 |[M:1/8] c |[M:3/4] (9:8:10c3/2c3/4 c-c/8A-A/8 B-B/8c-c/8 | %12
 (7:8:6[Fd]3/2-[Fd]3/8-[B,F-d-]3/4[B,Fd]3/8-[B,Fd]3/2c3/4 | %13
 (9:8:10c3/2A3/4 A-A/8[CFA]-[CFA]/8 [B,FG]-[B,FG]/8[A,F]-[A,F]/8 |[M:5/8] [EG]-[EG]- [EG]3- | %15
[M:1/8] [EG]/4 z/4 z/ |[M:3/4] (7:8:8A3/4A-A/8A3/4A3/4G-G/8F3/4 |[M:7/8] z2 c- c/4 z/4 z/ z2 d- | %18
[M:27/32] d3/4 z/4 z/4 z/4 z/4 z/4 z/4 z/4 z/4 z/4 z/4 z/4 z/4 z/4 z/4 z/4 z/4 z/4 z/4 z/4 z/4 z/4 z/4 z/ | %19
[M:13/8] [A,F]-[A,F]- [A,F]3 z z z z z z z2 |] %20
V:2
 z3 z2 [F,A,] | [F,CF][F,CF][F,CF] [F,CF][F,B,F][F,A,] | [F,A,F][F,A,F][F,A,F] [F,A,F]2 [F,A,F] | %3
 [B,,B,][B,,B,][B,,B,] [F,A,]2 [F,C] |[M:5/8] [C,C]-[C,C]- [C,C]3 |[M:1/8] [F,A,] | %6
[M:3/4] [F,CF][F,CF] [F,CF][F,CF] [F,B,F][F,A,] |[M:7/8] [F,A,F][F,A,F][F,A,F] [B,,B,]3 [B,,B,] | %8
[M:27/32] z/4 z/4 z/4 z/4 z/4 z/4 z/4 z/4 z/4 z/4 z/4 z/4 z/ C/4-C/4-C/4-C/4-C/4-C/4-C/-<C/ z/4 z/ | %9
[M:5/8] z5 |[M:1/8] [F,A,F] | %11
[M:3/4] (9:8:10[F,A,F]3/2[F,A,F]3/4 [F,A,F]-[F,A,F]/8[F,CF]-[F,CF]/8 [F,B,F]-[F,B,F]/8[F,A,F]-[F,A,F]/8 | %12
 (7:8:6[B,,B,]3/2-[B,,B,]3/8B,,3/4B,,3/8-B,,3/2[F,A,F]3/4 | %13
 (9:8:10[F,A,F]3/2[F,CF]3/4 [F,CF]-[F,CF]/8E,-E,/8 D,-D,/8D,-D,/8 |[M:5/8] C,2 C, z2 | %15
[M:1/8] [F,A,] | %16
[M:3/4] (7:8:8[F,CF]3/4[F,CF]-[F,CF]/8[F,CF]3/4[F,CF]3/4[F,B,F]-[F,B,F]/8[F,A,]3/4 | %17
[M:7/8] z2 [F,A,F]- [F,A,F]/4 z/4 z/ z2 [B,,B,]- | %18
[M:27/32] [B,,B,]3/4 z/4 D,/4-D,/-<D,/ z/4 z/4 z/4 z/4 z/4 z/4 z/4 z/4 z/4 z/4 z/4 z/4 z/4 z/4 z/4 z/4 z/ | %19
[M:13/8] z2 D .C3 z z z z z z2 |] %20
V:3
 x6 | x6 | x6 | x6 |[M:5/8] x5 |[M:1/8] x |[M:3/4] x6 |[M:7/8] x7 | %8
[M:27/32] z/4 z/4 z/4 z/4 z/4 z/4 z/4 z/4 z/4 z/4 z/4 z/4 z/ [FA]/4-[FA]/4-[FA]/4-[FA]/4-[FA]/4-[FA]/4-[FA]/-<[FA]/ z/4 z/ | %9
[M:5/8] F-F- F3- |[M:1/8] F/4 z/4 z/ |[M:3/4] x6 | x6 | x6 |[M:5/8] C2 C z2 |[M:1/8] F | %16
[M:3/4] x6 |[M:7/8] cc z [Fd]3 F | %18
[M:27/32] c/-<c/-[A,-F-c]/<[A,F]/[A,G]/-<[A,G]/-[A,C-F-GA-]/4[CFA]/4 z/4 z/4 z/4 z/4 z/4 z/4 z/ [B,EG]/4-[B,EG]/-<[B,EG]/ | %19
[M:13/8] x13 |] %20
V:4
 x6 | x6 | x6 | x6 |[M:5/8] x5 |[M:1/8] x |[M:3/4] x6 |[M:7/8] x7 | %8
[M:27/32] z/4 z/4 z/4 z/4 z/4 z/4 z/4 z/4 z/4 z/4 z/4 z/4 z/4 z/4 z/4 z/4 z/4 z/4 z/4 z/4 z/ [EG]/4-[EG]/-<[EG]/- | %9
[M:5/8] [EG]3/4 z/4 z D- D/4 z/4 z/ z |[M:1/8] x |[M:3/4] x6 | x6 | x6 |[M:5/8] z z2 C2- | %15
[M:1/8] C/4 z/4 z/ |[M:3/4] x6 |[M:7/8] x7 | %18
[M:27/32] F/-<F/ z/4 z/4 z/ F/-<F/ z/ [CFA]/4-[CFA]/4-[CFA]/4-[CFA]/4-[CFA]/4-[CFA]/-<[CFA]/ z/4 z/4 z/ | %19
[M:13/8] x13 |] %20
V:5
 x6 | x6 | x6 | x6 |[M:5/8] x5 |[M:1/8] x |[M:3/4] x6 |[M:7/8] x7 | %8
[M:27/32] [C,A,]/-<[C,A,]/[D,A,]/-<[D,A,]/[^C,A,]/-<[C,A,]/[=C,C]/C,/4-C,/4-C,/4-C,/4-C,/-<C,/ z/4 z/4 z/4 z/ | %9
[M:5/8] [F,A,]-[F,A,]- [F,A,]3 |[M:1/8] x |[M:3/4] x6 | x6 | x6 |[M:5/8] z z2 C,2- | %15
[M:1/8] C,/4 z/4 z/ |[M:3/4] x6 |[M:7/8] [F,A,F][F,A,F] z [B,,B,]3 z | %18
[M:27/32] z/4 z/4 z/4 z/4 z/4 z/4 z/4 z/4 z/4 z/4 z/ =C,/C,/4-C,/4-C,/4-C,/4-C,/-<C,/C,/4-C,/-<C,/ | %19
[M:13/8] F,-F,- F,3 z z z z z z z2 |] %20
V:6
 x6 | x6 | x6 | x6 |[M:5/8] x5 |[M:1/8] x |[M:3/4] x6 |[M:7/8] x7 | %8
[M:27/32] z/4 z/4 z/4 z/4 z/4 z/4 z/4 z/4 z/4 z/4 z/4 z/4 z/4 z/4 z/4 z/4 z/4 z/4 z/4 z/4 z/ [C,B,]/4-[C,B,]/-<[C,B,]/- | %9
[M:5/8] [C,B,]3/4 z/4 z z z2 |[M:1/8] x |[M:3/4] x6 | x6 | x6 |[M:5/8] x5 |[M:1/8] x |[M:3/4] x6 | %17
[M:7/8] x7 | %18
[M:27/32] [C,A,]/4-[C,A,]/-<[C,A,]/ z/4 z/ ^C,/4-C,/-<C,/ z/4 z/4 z/4 z/4 z/4 z/4 z/4 z/4 z/4 z/4 z/4 z/4 z/ | %19
[M:13/8] x13 |] %20
V:7
 x6 | x6 | x6 | x6 |[M:5/8] x5 |[M:1/8] x |[M:3/4] x6 |[M:7/8] x7 |[M:27/32] x27/4 | %9
[M:5/8] z z2 C2- |[M:1/8] C/4 z/4 z/ |[M:3/4] x6 | x6 | x6 |[M:5/8] x5 |[M:1/8] x |[M:3/4] x6 | %17
[M:7/8] x7 |[M:27/32] x27/4 |[M:13/8] x13 |] %20

